X: 5
T: HORNPIPES: Plains of Boyle Set
T: Plains of Boyle
C: C: Trad.; S: Various
C: Set Leaders: Mars
Z: Mars Agliullin ed., Oleg Naumov arr.; JHowley / Finnbarr at The Session
N: https://thesession.org/members/26966/sets/94258
R: Hornpipe
M: 4/4
L: 1/8
Q: 1/2=82
K: Dmaj
|:FG|"D"AFDE FEDF|(3ABA GB "G"AF D2|"D/F#"fedf "(Em)"edce|"D/B"dcAB "C"=cAGB|
"D"AFDE FEDF|(3ABA GB "G"AF D2|"D/F#"fedc "Em"ABAG|"D/F#"F2"D"D2 "D"D2:||
|:fg|"D"afdf "G"g2 fe|"D/F#"dfed "A"BAFA|"D"(3ABA FA "Bm"BAFG|"Em"(3ABA FA "A"BAfg|
"D"afdf "Em"g2 fe|"D/F#"dfed "G"BAFG|"D/F#"~A2 FG "Em"ABAG|"D/F#"F2"D"D2 "D"D2:||
T: Liverpool
K: Dmaj
|:AG|"D"FD FA df af|gf ec "D/F#"dc BA|"G"G2 BG "D/F#"F2 AF|"Em"ED EF "A"GB AG|
"D"FD FA "(D/F#)"df af|"G"gf ec "D/F#"dc BA|"Em"df af "A"bg ec|"D"d2 "A"dc "D"d2:||
|:(3ABc|"D"d2 fd "D/F#"c2 dc|"Bm"BA Bc "A"dc BA|"G"G2 BG "D/F#"F2 AF|"Em"ED EF "A"GB AG|
"D"FD FA "(D/F#)"df af|"G"gf ec "D/F#"dc BA|"Em"df af "A"bg ec|"D"d2 "A"dc "D"d2:||

